!!!!SEGMENT: pl-kk--kk-i-487--008_anonim--posyla-do-panny.krn
!!!cenid: 18xx:1363
!!!COM: Anonim
!!!COM-rismID: pe30004985
!!!CDT:
!!!CNT:
!!!OTL: Posyła do panny
!!!PDT:
!!!AGN: Sacred
!!!YEC: Copyright 2022 Narodowy Instytut Fryderyka Chopina (https://polishscores.org)
!!!YEM: License CC-BY-4.0 (https://creativecommons.org/licenses/by/4.0)
!!!SMS-siglum: PL-Kk
!!!SMS-shelfmark: Kk.I.487
!!!SMS-shelfwork: 008 W
!!!SMS-variant:
!!!SMS-altvar:
!!!NIFC-rismSourceID: 1001141040
!!!NIFC-rismChildID: 1001141054
!!!NIFC-islandoraID: pl-kk:14481
!!!URL-pdf-islandora: https://repozytorium.nifc.pl/islandora/object/pl-kk%3A14481/datastream/PDF/view
!!!URL-scan: https://polish.musicsources.pl/pl/lokalizacje/galeria/rekopisy/6094 @EN{Scan on Polish Music Sources Website} @PL{Skany w portalu Dziedzictwo Muzyki Polskiej w otwartym dostępie}
!!!IIIF:
!!!ONB-nifc:
!!!AIN: 1 alto 1 empty 1 soprn 1 tenor
!!!key:
**kern	**text	**text	**kern	**text	**text	**kern	**text	**text	**kern	**text	**text
*part4	*	*	*part3	*	*	*part2	*	*	*part1	*	*
*staff4	*	*	*staff3	*	*	*staff2	*	*	*staff1	*	*
*Iempty	*	*	*Itenor	*	*	*Ialto	*	*	*Isoprn	*	*
*I"Bas	*	*	*I"Tenor	*	*	*I"alt.	*	*	*I"Sopran	*	*
*I'B	*	*	*I'T	*	*	*I'A	*	*	*I'S	*	*
*clefF4	*	*	*clefC4	*	*	*clefC3	*	*	*clefC1	*	*
*k[b-e-a-]	*	*	*k[b-e-a-]	*	*	*k[b-e-a-]	*	*	*k[b-e-a-]	*	*
*E-:	*	*	*E-:	*	*	*E-:	*	*	*E-:	*	*
*M4/4	*	*	*M4/4	*	*	*M4/4	*	*	*M4/4	*	*
*met(c)	*	*	*met(c)	*	*	*met(c)	*	*	*met(c)	*	*
=1	=1	=1	=1	=1	=1	=1	=1	=1	=1	=1	=1
*all\right	*	*	*all\right	*	*	*all\right	*	*	*all\right	*	*
4E-\	Po-	przy-	4G/	Po-	przy-	4B-/	Po-	przy-	4e-/	Po-	przy-
4D\	-sy-	-stę-	4B-\	-sy-	-stę-	4B-/	-sy-	-stę-	4f/	-sy-	-stę-
4E-\	-ła	-puj	4B-\	-ła	-puj	4e-\	-ła	-pui	4g\	-ła	-puj
4E-\	do	a	4c\	do	a	4e-\	do	a	4a-\	do	a
=2	=2	=2	=2	=2	=2	=2	=2	=2	=2	=2	=2
*2\right	*	*	*	*	*	*2\right	*	*	*	*	*
2E-\	Pan-	zwias-	(4.G/	Pan-	zwa-	2e-\	Pan-	zwias-	(4.b-\	Pan-	zwias-
.	.	.	8A-/)	.	.	.	.	.	8cc\)	.	.
4E-\	-ny	-tuj	4G/	-ny	-stuj	4e-\	-ny	-tuj	4b-\	-ny	-tuj
4r	.	.	4r	.	.	4r	.	.	4r	.	.
=3	=3	=3	=3	=3	=3	=3	=3	=3	=3	=3	=3
(8E-\L	nie	mów	4B-\	nie	mów	4e-\	nie	mów	4g\	nie	mów
8D-X\J)	.	.	.	.	.	.	.	.	.	.	.
4C/	la-	bądz	4A-\	la-	bądz	4e-\	la-	bądz	4a-\	la-	bądz
4.BB-/	-da	po-	4.G\	-da	po-	4.e-\	-da	po-	4.b-\	-da	po-
8AA-/	A-	-zdro-	8c\	a-	-zdro-	8f\	A-	-zdro-	8a-\	a-	-zdro-
=4	=4	=4	=4	=4	=4	=4	=4	=4	=4	=4	=4
2BB-/	-nio-	-wio-	(4B-\	-nio-	-wio-	(4e-\	-nio-	-wio-	(4g\	-nio-	-wio-
.	.	.	4A-\)	.	.	4d\)	.	.	4f\)	.	.
4E-\	-ła	-na	4G/	-ła	-na	4e-\	-ła	-na	4e-/	-ła	-na
4r	.	.	4r	.	.	4r	.	.	4r	.	.
!LO:LB:g=original	!	!	!LO:LB:g=original	!	!	!LO:LB:g=original	!	!	!LO:LB:g=original	!	!
=5	=5	=5	=5	=5	=5	=5	=5	=5	=5	=5	=5
4E-\	lecz	mów	4G/	lecz	mow	4e-\	lecz	mow	4b-\	lecz	mów
4E-\	mo-	że	4G/	mo-	że	4e-\	mo-	że	4b-\	mo-	że
4G\	-car-	ła-	4B-\	-ca-	ła-	4e-\	-ca-	ła-	4b-\	-ca-	ła-
4G\	-ża	-ski	4d-X\	-rza	-ski	4e-\	-rza	-ski	4b-\	-rza	-ski
=6	=6	=6	=6	=6	=6	=6	=6	=6	=6	=6	=6
*	*	*	*2\right	*	*	*	*	*	*2\right	*	*
2A-\	swe-	peł-	2c\	swe-	peł-	2e-\	swe-	peł-	2cc\	swe-	peł-
4A-\	-go	-na	4c\	-go	-na	4e-\	-go	-na	4a-\	-go	-na
4r	.	.	4r	.	.	4r	.	.	4r	.	.
=7	=7	=7	=7	=7	=7	=7	=7	=7	=7	=7	=7
4G\	cne-	że	4d-X\	cne-	że	4e-\	cne-	że	4b-\	cne-	ze
4A-\	-go	z_Bo-	4c\	-go	z_Bo-	4e-\	-go	z_Bo-	4cc\	-go	z_Bo-
4G\	Ar-	-giem	4B-\	Ar-	-giem	4e-\	ar-	-giem	4dd-X\	Ar-	-giem
4G\	-cha-	złą-	4B-\	-cha-	złą-	4e-\	-cha-	złą-	4dd-\	-cha-	złą-
=8	=8	=8	=8	=8	=8	=8	=8	=8	=8	=8	=8
(4A-\	-nio-	-czo-	(4c\	-nio-	-czo-	(4e-\	-nio-	-czo-	2cc\	-nio-	-czo-
4F\)	.	.	4A-\)	.	.	4dn\)	.	.	.	.	.
2G;\	-ła	-na	2B-;\	-ła	-na	2e-;\	-ła	-na	2b-;\	-ła	-na
=9	=9	=9	=9	=9	=9	=9	=9	=9	=9	=9	=9
4E-\	mi-	mow	4G/	mi-	mów	4e-\	mi-	mów	4b-\	mi-	mów
4C\	-ło-	niech	4G/	-ło-	niech	4e-\	-ło-	niech	4cc\	-ło-	niech
2C\	-snik	się	(>4G/	-snik	się	2f\	-śnik	się	2ee-\	-snik	się
.	.	.	4An/)	.	.	.	.	.	.	.	.
!LO:LB:g=original	!	!	!LO:LB:g=original	!	!	!LO:LB:g=original	!	!	!LO:LB:g=original	!	!
=10	=10	=10	=10	=10	=10	=10	=10	=10	=10	=10	=10
4D\	na-	nie	(8An\L	na-	nie	4f\	na-	nie	4ddn\	na-	nie
.	.	.	8B-\J)	.	.	.	.	.	.	.	.
4F\	-ro-	bo-	4A\	-ro-	bo-	4e-\	-ro-	bo-	4cc\	-ro-	bo-
2BB-;/	-du	-i	2B-;\	-du	-i	2d;\	-du	-i	2b-;\	-du	-i
=11	=11	=11	=11	=11	=11	=11	=11	=11	=11	=11	=11
4BB-/	nie-	Pan-	4B-\	nie-	Pan-	4d\	nie-	Pan-	4b-\	nie-	Pan-
4C/	-chaj	-no	4B-\	-chaj	-no	4e-\	-chaj	-no	4b-\	-chaj	-no
4D\	sle	przyj-	4B-\	sle	przyj-	4f\	sle	przyj-	4b-\	sle	przyj-
4F\	mo-	-mij	4A-X\	mo-	-mij	4d\	mo-	-mij	4b-\	mo-	-mij
=12	=12	=12	=12	=12	=12	=12	=12	=12	=12	=12	=12
2E-\	-cne-	ten	2A-\	-cne-	ten	(4e-\	-cne-	ten	2cc\	-cne-	ten
.	.	.	.	.	.	4d\)	.	.	.	.	.
4E-\	-go	skarb	4G/	-go	skarb	4e-\	-go	skarb	4b-\	-go	skarb
4r	.	.	4r	.	.	4r	.	.	4r	.	.
=13	=13	=13	=13	=13	=13	=13	=13	=13	=13	=13	=13
4C\	po-	Bo-	4G/	po-	Bo-	4e-\	po-	Bo-	4g\	po-	Bo-
4F\	-sła	-ży	4F/	-sła	-ży	4c\	-sła	-ży	4a-\	-sła	-ży
4.BB-/	w_na-	po-	4.F/	w_na-	po-	4.c\	w_na-	po-	4.b-\	w_na-	po-
8D\	-szej	-wie-	8B-\	-szej	-wie-	8f\	-szej	-wie-	8a-\	-szej	-wie-
!LO:LB:g=original	!	!	!	!	!	!	!	!	!	!	!
=14	=14	=14	=14	=14	=14	=14	=14	=14	=14	=14	=14
(4E-\	spra-	-rzo-	2B-\	spra-	-rzo-	(4e-\	spra-	-rzo-	(4g\	spra-	-rzo-
4A-\)	.	.	.	.	.	4d\)	.	.	4f\)	.	.
4G\	-wie	-ny	4B-\	-wie	-ny	4e-\	-wie	-ny	4e-/	-wie	-ny
4r	.	.	4r	.	.	4r	.	.	4r	.	.
!	!	!	!LO:LB:g=original	!	!	!LO:LB:g=original	!	!	!LO:LB:g=original	!	!
=15	=15	=15	=15	=15	=15	=15	=15	=15	=15	=15	=15
4G\	a-	w ko-	4B-\	a-	w kto-	4e-\	a-	w ko-	4b-\	a-	w któ-
4F\	-by	-rym	4A-\	-by	-rym	4d-X\	-by	-rym	4b-\	-by	-rym
4En\	przy-	czy-	4G/	przy	czy-	4c\	przy	czy-	4b-\	przy	czy-
4D-X\	-ro-	-sty	4G/	ro-	-sty	4f\	ro-	-sty	4b-\	ro-	-sty
=16	=16	=16	=16	=16	=16	=16	=16	=16	=16	=16	=16
2C/	-dze-	za-	(4G\	-dze-	za-	(4f\	-dze-	za-	2cc\	-dze-	za-
.	.	.	4c\)	.	.	4en\)	.	.	.	.	.
4F\	-niu	-mysł	4c\	-niu	-mysł	4f\	-niu	-mysł	4a-\	-niu	-mysł
4r	.	.	4r	.	.	4r	.	.	4r	.	.
=17	=17	=17	=17	=17	=17	=17	=17	=17	=17	=17	=17
(8E-\L	u-	twój	4G/	u-	twój	4e-\	u-	twój	4b-\	u-	twój
8D-X\J)	.	.	.	.	.	.	.	.	.	.	.
4C/	-czy-	be-	4A-\	-czy-	be-	4e-\	-czy-	be-	4cc\	-czy-	be-
4BB-/	-nił	-dzie	4A-\	-nił	-dzie	4e-\	-nił	-dzie	4dd-X\	-nił	-dzie
4BB-/	bez-	speł-	4G/	bez-	speł-	4e-\	bez-	speł-	4dd-\	bez-	speł-
!LO:LB:g=original	!	!	!	!	!	!	!	!	!	!	!
=18	=18	=18	=18	=18	=18	=18	=18	=18	=18	=18	=18
(4AA-/	-pra-	-nio-	2A-\	-pra-	-nio-	2e-\	-pra-	-nio-	2cc\	-pra-	-nio-
4C/)	.	.	.	.	.	.	.	.	.	.	.
4E-\	-wie	-ny	4G/	-wie	-ny	4e-\	-wie	-ny	4b-\	-wie	-ny
4r;	.	.	4r;	.	.	4r;	.	.	4r;	.	.
!	!	!	!LO:LB:g=original	!	!	!	!	!	!LO:LB:g=original	!	!
=19	=19	=19	=19	=19	=19	=19	=19	=19	=19	=19	=19
4E-\	z_pa-	i	4G/	z_pa-	i	4e-\	z_pa-	i	4b-\	z_pa-	i
4D-X\	-nień-	slub	4G/	-nień-	slub	4f\	-nień-	slub	4b-\	-nień-	slub
!	!	!	!	!	!	!LO:LB:g=original	!	!	!	!	!
4C\	-skie-	się	(8G\L	-skie-	się	(8f\L	-skie-	się	4cc\	-skie-	się
.	.	.	8c\J)	.	.	8en\	.	.	.	.	.
4F\	-go	o-	4c\	-go	o-	8f\J)	.	.	4a-\	-go	o-
.	.	.	.	.	.	8e-X\	-go	o-	.	.	.
=20	=20	=20	=20	=20	=20	=20	=20	=20	=20	=20	=20
2BB-/	pło-	-sto-	2A-\	pło-	-sto-	(4f\	pło-	-sto-	2b-\	pło-	-sto-
.	.	.	.	.	.	4d\)	.	.	.	.	.
4E-\	-du	-i	4G/	-du	-i	4e-\	-du	-i	4e-/	-du	-i
4r;	.	.	4r	.	.	4r	.	.	4r	.	.
==	==	==	==	==	==	==	==	==	==	==	==
*-	*-	*-	*-	*-	*-	*-	*-	*-	*-	*-	*-
!!!system-decoration: [(s1,s2,s3,s4)]
!!!RDF**kern: > = above
!!!ENC: Marta Lawrence
!!!END: 2021-01-19
!!!ENC: Tomasz Grochalski
!!!END: 2021-01-10
